app/dist/common/images/warrior-met-coal.svg

<svg height="18" width="18" xmlns="http://www.w3.org/2000/svg"><path d="m0 0h18v18h-18z" fill="#f0f3fa"/><path d="m5 14-2-7.5 2.308-2.5 2.692 10zm3.5 0-2-7.5 2.308-2.5 2.692 10z" fill="#0a3b61"/><path d="m12 14-2-7.5 2.308-2.5 2.692 10z" fill="#006496"/></svg>

<!-- by TradingView --><svg width="18" height="18" xmlns="http://www.w3.org/2000/svg"><path fill="#F0F3FA" d="M0 0h18v18H0z"/><path d="M5 14L3 6.5 5.308 4 8 14H5zM8.5 14l-2-7.5L8.808 4 11.5 14h-3z" fill="#0A3B61"/><path d="M12 14l-2-7.5L12.308 4 15 14h-3z" fill="#006496"/></svg>
